assets/svg/instagram.svg

<svg width="26" height="26" viewBox="0 0 26 26" fill="none" xmlns="http://www.w3.org/2000/svg">
<path d="M13.0191 0.0012207H12.9599C5.79862 0.0012207 -0.00671387 5.80827 -0.00671387 12.9716V13.0308C-0.00671387 20.1942 5.79862 26.0012 12.9599 26.0012H13.0191C20.1803 26.0012 25.9856 20.1942 25.9856 13.0308V12.9716C25.9856 5.80827 20.1803 0.0012207 13.0191 0.0012207Z" fill="white"/>
<path d="M17.0113 5.29086H8.96854C6.74658 5.29086 4.93896 7.09901 4.93896 9.32162V16.6817C4.93896 18.9044 6.74658 20.7125 8.96854 20.7125H17.0113C19.2333 20.7125 21.0409 18.9044 21.0409 16.6817V9.32162C21.0409 7.09901 19.2333 5.29086 17.0113 5.29086ZM6.36047 9.32162C6.36047 7.8833 7.53064 6.71279 8.96854 6.71279H17.0113C18.4492 6.71279 19.6194 7.8833 19.6194 9.32162V16.6817C19.6194 18.1201 18.4492 19.2906 17.0113 19.2906H8.96854C7.53064 19.2906 6.36047 18.1201 6.36047 16.6817V9.32162Z" fill="#557D32"/>
<path d="M12.99 16.7501C15.0562 16.7501 16.7381 15.0685 16.7381 13.0008C16.7381 10.933 15.0571 9.25148 12.99 9.25148C10.9228 9.25148 9.24176 10.933 9.24176 13.0008C9.24176 15.0685 10.9228 16.7501 12.99 16.7501ZM12.99 10.6743C14.273 10.6743 15.3166 11.7182 15.3166 13.0017C15.3166 14.2851 14.273 15.329 12.99 15.329C11.7069 15.329 10.6633 14.2851 10.6633 13.0017C10.6633 11.7182 11.7069 10.6743 12.99 10.6743Z" fill="#557D32"/>
<path d="M17.0851 9.85723C17.6415 9.85723 18.095 9.40451 18.095 8.84704C18.095 8.28956 17.6424 7.83684 17.0851 7.83684C16.5278 7.83684 16.0752 8.28956 16.0752 8.84704C16.0752 9.40451 16.5278 9.85723 17.0851 9.85723Z" fill="#557D32"/>
</svg>

<svg width="26" height="26" fill="none" xmlns="http://www.w3.org/2000/svg"><path d="M13.026.001h-.06C5.807.001 0 5.808 0 12.971v.06C0 20.194 5.805 26 12.967 26h.059c7.161 0 12.966-5.807 12.966-12.97v-.06c0-7.163-5.805-12.97-12.966-12.97z" fill="#383D38"/><path d="M17.018 5.29H8.975a4.035 4.035 0 00-4.03 4.032v7.36a4.035 4.035 0 004.03 4.03h8.043a4.035 4.035 0 004.03-4.03v-7.36a4.035 4.035 0 00-4.03-4.031zM6.368 9.323a2.612 2.612 0 012.607-2.61h8.043a2.612 2.612 0 012.608 2.61v7.36a2.612 2.612 0 01-2.608 2.609H8.975a2.612 2.612 0 01-2.608-2.61v-7.36z" fill="#fff"/><path d="M12.997 16.75A3.753 3.753 0 0016.745 13a3.752 3.752 0 00-3.748-3.749 3.752 3.752 0 00-3.749 3.75 3.753 3.753 0 003.749 3.75zm0-6.076a2.33 2.33 0 012.326 2.328 2.33 2.33 0 01-2.326 2.327 2.33 2.33 0 01-2.327-2.327 2.33 2.33 0 012.327-2.328zM17.092 9.857a1.011 1.011 0 000-2.02 1.01 1.01 0 000 2.02z" fill="#fff"/></svg>
